src/pos-icons/note.svg

<svg height="24" viewBox="0 0 24 24" width="24" xmlns="http://www.w3.org/2000/svg"><path d="m14 10v-5.5l5.5 5.5m-14.5-7c-1.11 0-2 .89-2 2v14a2 2 0 0 0 2 2h14a2 2 0 0 0 2-2v-10l-6-6z"/></svg>

<?xml version="1.0" encoding="UTF-8"?><!DOCTYPE svg PUBLIC "-//W3C//DTD SVG 1.1//EN" "http://www.w3.org/Graphics/SVG/1.1/DTD/svg11.dtd"><svg xmlns="http://www.w3.org/2000/svg" xmlns:xlink="http://www.w3.org/1999/xlink" version="1.1" id="mdi-note" width="24" height="24" viewBox="0 0 24 24"><path d="M14,10V4.5L19.5,10M5,3C3.89,3 3,3.89 3,5V19A2,2 0 0,0 5,21H19A2,2 0 0,0 21,19V9L15,3H5Z" /></svg>
